svg/face_mask.svg

<svg xmlns="http://www.w3.org/2000/svg" viewBox="0 0 24 24"><path d="M20.25 6c-1.46 0-2.64 1.14-2.75 2.58l-4.95-1.42c-.36-.11-.74-.11-1.1 0L6.5 8.58C6.39 7.14 5.21 6 3.75 6 2.23 6 1 7.23 1 8.75v3.5C1 13.77 2.23 15 3.75 15h1.93c1.13 2.36 3.53 4 6.32 4s5.19-1.64 6.32-4h1.93c1.52 0 2.75-1.23 2.75-2.75v-3.5C23 7.23 21.77 6 20.25 6M5 13.5H3.75c-.69 0-1.25-.56-1.25-1.25v-3.5a1.25 1.25 0 0 1 2.5 0zM15 12l-2.6-.7c-.3-.1-.6-.1-.8 0L9 12v-1l2.3-.7c.4-.1.9-.1 1.4 0l2.3.7zm6.5.25c0 .69-.56 1.25-1.25 1.25H19V8.75a1.25 1.25 0 0 1 2.5 0z"/></svg>

<?xml version="1.0" encoding="UTF-8"?><!DOCTYPE svg PUBLIC "-//W3C//DTD SVG 1.1//EN" "http://www.w3.org/Graphics/SVG/1.1/DTD/svg11.dtd"><svg xmlns="http://www.w3.org/2000/svg" xmlns:xlink="http://www.w3.org/1999/xlink" version="1.1" id="mdi-face-mask" width="24" height="24" viewBox="0 0 24 24"><path d="M20.25 6C18.79 6 17.61 7.14 17.5 8.58L12.55 7.16C12.19 7.05 11.81 7.05 11.45 7.16L6.5 8.58C6.39 7.14 5.21 6 3.75 6C2.23 6 1 7.23 1 8.75V12.25C1 13.77 2.23 15 3.75 15H5.68C6.81 17.36 9.21 19 12 19S17.19 17.36 18.32 15H20.25C21.77 15 23 13.77 23 12.25V8.75C23 7.23 21.77 6 20.25 6M5 13.5H3.75C3.06 13.5 2.5 12.94 2.5 12.25V8.75C2.5 8.06 3.06 7.5 3.75 7.5S5 8.06 5 8.75V13.5M15 12L12.4 11.3C12.1 11.2 11.8 11.2 11.6 11.3L9 12V11L11.3 10.3C11.7 10.2 12.2 10.2 12.7 10.3L15 11V12M21.5 12.25C21.5 12.94 20.94 13.5 20.25 13.5H19V8.75C19 8.06 19.56 7.5 20.25 7.5S21.5 8.06 21.5 8.75V12.25Z" /></svg>
